icon/favicon.svg

<?xml version="1.0" encoding="UTF-8" standalone="no"?>
<svg
   xmlns:osb="http://www.openswatchbook.org/uri/2009/osb"
   xmlns:dc="http://purl.org/dc/elements/1.1/"
   xmlns:cc="http://creativecommons.org/ns#"
   xmlns:rdf="http://www.w3.org/1999/02/22-rdf-syntax-ns#"
   xmlns:svg="http://www.w3.org/2000/svg"
   xmlns="http://www.w3.org/2000/svg"
   xmlns:xlink="http://www.w3.org/1999/xlink"
   viewBox="0 0 200.0 200.0"
   height="200.0px"
   width="200.0px">
  <defs
     id="defs986">
    <linearGradient
       id="linearGradient1498"
       >
      <stop
         id="stop1494"
         offset="0"
         style="stop-color:#01fdff;stop-opacity:1"/>
      <stop
         id="stop1496"
         offset="1"
         style="stop-color:#dc00ff;stop-opacity:1"/>
    </linearGradient>
    <linearGradient
       id="linearGradient924"
       osb:paint="solid">
      <stop
         style="stop-color:#ffffff;stop-opacity:1;"
         offset="0"
         id="stop922"/>
    </linearGradient>
    <linearGradient
       id="linearGradient918"
       osb:paint="solid">
      <stop
         style="stop-color:#ffffff;stop-opacity:1;"
         offset="0"
         id="stop916"/>
    </linearGradient>
    <linearGradient
       osb:paint="solid"
       id="linearGradient4736">
      <stop
         id="stop4734"
         offset="0"
         style="stop-color:#000000;stop-opacity:1;"/>
    </linearGradient>
    <linearGradient
       osb:paint="solid"
       id="linearGradient2798">
      <stop
         id="stop2796"
         offset="0"
         style="stop-color:#00fdff;stop-opacity:1;"/>
    </linearGradient>
    <linearGradient
       gradientUnits="userSpaceOnUse"
       y2="81.607948"
       x2="58.326622"
       y1="-4.663311"
       x1="23.351788"
       id="linearGradient1502"
       xlink:href="#linearGradient1498"/>
  </defs>

  <g
     id="layer1"
     
     >
    <g
       style="fill-opacity:1;fill:url(#linearGradient1502);opacity:1"
       id="g1187"
       transform="matrix(2.144399,0,0,2.144399,9.924449,19.999999)">
      <path
         d="M 28,48.498047 14,72.746094 H 27.986328 L 34.984375,60.625 l 0.02539,0.01563 z m 13.992188,24.236328 -0.0059,0.01172 H 42 Z"/>
      <path
         d="M 49,60.623047 42,72.746094 H 56 70 L 77,60.623047 H 70 63 Z"/>
      <path
         d="m 28,0 -7.044922,12.199219 6.957031,12.048828 H 42 Z"/>
      <path
         d="m 14,24.248047 -3.5,6.0625 -3.5,6.0625 -7,12.125 7,12.123047 3.5,-6.0625 L 21,36.373047 Z"/>
      <path
         d="M 63,36.371094 56,48.498047 H 84 L 77,36.371094 H 76.998 63.001906 Z"/>
      <path
         d="m 42,0 3.5,6.0625 3.5,6.0625 7,12.123047 H 70 L 66.5,18.1875 63,12.125 56,0 Z"/>
      <path
         
         d="m 28.000001,48.497712 h 28 l -14,-24.248711 z"/>
    </g>
  </g>
</svg>

<?xml version="1.0" encoding="UTF-8"?>
<svg width="200px" height="200px" version="1.1" viewBox="0 0 200 200" xmlns="http://www.w3.org/2000/svg" xmlns:cc="http://creativecommons.org/ns#" xmlns:dc="http://purl.org/dc/elements/1.1/" xmlns:osb="http://www.openswatchbook.org/uri/2009/osb" xmlns:rdf="http://www.w3.org/1999/02/22-rdf-syntax-ns#" xmlns:xlink="http://www.w3.org/1999/xlink">
 <metadata>
  <rdf:RDF>
   <cc:Work rdf:about="">
    <dc:format>image/svg+xml</dc:format>
    <dc:type rdf:resource="http://purl.org/dc/dcmitype/StillImage"/>
    <dc:title/>
   </cc:Work>
  </rdf:RDF>
 </metadata>
 <defs>
  <linearGradient id="linearGradient1502" x1="23.352" x2="58.327" y1="-4.6633" y2="81.608" gradientUnits="userSpaceOnUse">
   <stop stop-color="#01fdff" offset="0"/>
   <stop stop-color="#dc00ff" offset="1"/>
  </linearGradient>
 </defs>
 <g transform="matrix(2.1444 0 0 2.1444 9.9244 20)" fill="url(#linearGradient1502)">
  <path d="m28 48.498-14 24.248h13.986l6.998-12.121 0.02539 0.01563zm13.992 24.236-0.0059 0.01172h0.013712z"/>
  <path d="m49 60.623-7 12.123h28l7-12.123h-14z"/>
  <path d="m28 0-7.0449 12.199 6.957 12.049h14.088z"/>
  <path d="m14 24.248-14 24.25 7 12.123 3.5-6.0625 10.5-18.186z"/>
  <path d="m63 36.371-7 12.127h28l-7-12.127h-13.998z"/>
  <path d="m42 0 7 12.125 7 12.123h14l-3.5-6.0605-10.5-18.188z"/>
  <path d="m28 48.498h28l-14-24.249z"/>
 </g>
</svg>
